rospo-newyear-dark/symbolic/places/start-here-symbolic.svg

<svg height="16" width="16" xmlns="http://www.w3.org/2000/svg"><g fill="#d3dae3"><path d="m3.5 3h1c .277 0 .5.223.5.5v1c0 .277-.223.5-.5.5h-1c-.277 0-.5-.223-.5-.5v-1c0-.277.223-.5.5-.5z"/><path d="m7.5 3h1c .277 0 .5.223.5.5v1c0 .277-.223.5-.5.5h-1c-.277 0-.5-.223-.5-.5v-1c0-.277.223-.5.5-.5z"/><path d="m11.5 3h1c .277 0 .5.223.5.5v1c0 .277-.223.5-.5.5h-1c-.277 0-.5-.223-.5-.5v-1c0-.277.223-.5.5-.5z"/><path d="m3.5 7h1c .277 0 .5.223.5.5v1c0 .277-.223.5-.5.5h-1c-.277 0-.5-.223-.5-.5v-1c0-.277.223-.5.5-.5z"/><path d="m7.5 7h1c .277 0 .5.223.5.5v1c0 .277-.223.5-.5.5h-1c-.277 0-.5-.223-.5-.5v-1c0-.277.223-.5.5-.5z"/><path d="m11.5 7h1c .277 0 .5.223.5.5v1c0 .277-.223.5-.5.5h-1c-.277 0-.5-.223-.5-.5v-1c0-.277.223-.5.5-.5z"/><path d="m3.5 11h1c .277 0 .5.223.5.5v1c0 .277-.223.5-.5.5h-1c-.277 0-.5-.223-.5-.5v-1c0-.277.223-.5.5-.5z"/><path d="m7.5 11h1c .277 0 .5.223.5.5v1c0 .277-.223.5-.5.5h-1c-.277 0-.5-.223-.5-.5v-1c0-.277.223-.5.5-.5z"/><path d="m11.5 11h1c .277 0 .5.223.5.5v1c0 .277-.223.5-.5.5h-1c-.277 0-.5-.223-.5-.5v-1c0-.277.223-.5.5-.5z"/></g></svg>

<svg xmlns="http://www.w3.org/2000/svg" width="16" height="16" version="1.1">
 <path style="fill:#d3dae3" d="M 3.5,3 H 4.5 C 4.777,3 5,3.223 5,3.5 V 4.5 C 5,4.777 4.777,5 4.5,5 H 3.5 C 3.223,5 3,4.777 3,4.5 V 3.5 C 3,3.223 3.223,3 3.5,3 Z"/>
 <path style="fill:#d3dae3" d="M 7.5,3 H 8.5 C 8.777,3 9,3.223 9,3.5 V 4.5 C 9,4.777 8.777,5 8.5,5 H 7.5 C 7.223,5 7,4.777 7,4.5 V 3.5 C 7,3.223 7.223,3 7.5,3 Z"/>
 <path style="fill:#d3dae3" d="M 11.5,3 H 12.5 C 12.777,3 13,3.223 13,3.5 V 4.5 C 13,4.777 12.777,5 12.5,5 H 11.5 C 11.223,5 11,4.777 11,4.5 V 3.5 C 11,3.223 11.223,3 11.5,3 Z"/>
 <path style="fill:#d3dae3" d="M 3.5,7 H 4.5 C 4.777,7 5,7.223 5,7.5 V 8.5 C 5,8.777 4.777,9 4.5,9 H 3.5 C 3.223,9 3,8.777 3,8.5 V 7.5 C 3,7.223 3.223,7 3.5,7 Z"/>
 <path style="fill:#d3dae3" d="M 7.5,7 H 8.5 C 8.777,7 9,7.223 9,7.5 V 8.5 C 9,8.777 8.777,9 8.5,9 H 7.5 C 7.223,9 7,8.777 7,8.5 V 7.5 C 7,7.223 7.223,7 7.5,7 Z"/>
 <path style="fill:#d3dae3" d="M 11.5,7 H 12.5 C 12.777,7 13,7.223 13,7.5 V 8.5 C 13,8.777 12.777,9 12.5,9 H 11.5 C 11.223,9 11,8.777 11,8.5 V 7.5 C 11,7.223 11.223,7 11.5,7 Z"/>
 <path style="fill:#d3dae3" d="M 3.5,11 H 4.5 C 4.777,11 5,11.223 5,11.5 V 12.5 C 5,12.777 4.777,13 4.5,13 H 3.5 C 3.223,13 3,12.777 3,12.5 V 11.5 C 3,11.223 3.223,11 3.5,11 Z"/>
 <path style="fill:#d3dae3" d="M 7.5,11 H 8.5 C 8.777,11 9,11.223 9,11.5 V 12.5 C 9,12.777 8.777,13 8.5,13 H 7.5 C 7.223,13 7,12.777 7,12.5 V 11.5 C 7,11.223 7.223,11 7.5,11 Z"/>
 <path style="fill:#d3dae3" d="M 11.5,11 H 12.5 C 12.777,11 13,11.223 13,11.5 V 12.5 C 13,12.777 12.777,13 12.5,13 H 11.5 C 11.223,13 11,12.777 11,12.5 V 11.5 C 11,11.223 11.223,11 11.5,11 Z"/>
</svg>
